CSETWebApi/CSETWeb_Api/CSETWeb_ApiCore/Diagram/src/main/webapp/img/lib/mscae/Virtual_Network.svg

<?xml version="1.0" encoding="UTF-8" standalone="no"?>
<svg
   xmlns:dc="http://purl.org/dc/elements/1.1/"
   xmlns:cc="http://creativecommons.org/ns#"
   xmlns:rdf="http://www.w3.org/1999/02/22-rdf-syntax-ns#"
   xmlns:svg="http://www.w3.org/2000/svg"
   xmlns="http://www.w3.org/2000/svg"
   xmlns:sodipodi="http://sodipodi.sourceforge.net/DTD/sodipodi-0.dtd"
   xmlns:inkscape="http://www.inkscape.org/namespaces/inkscape"
   version="1.1"
   id="Layer_1"
   x="0px"
   y="0px"
   height="28.713535"
   width="50.077072"
   viewBox="0 0 50.077072 28.713535"
   enable-background="new 0 0 50 50"
   xml:space="preserve"
   inkscape:version="0.91 r13725"
   sodipodi:docname="Azure Virtual Network_COLOR.svg"><metadata
     id="metadata17"><rdf:RDF><cc:Work
         rdf:about=""><dc:format>image/svg+xml</dc:format><dc:type
           rdf:resource="http://purl.org/dc/dcmitype/StillImage" /><dc:title></dc:title></cc:Work></rdf:RDF></metadata><defs
     id="defs15" /><sodipodi:namedview
     pagecolor="#ffffff"
     bordercolor="#666666"
     borderopacity="1"
     objecttolerance="10"
     gridtolerance="10"
     guidetolerance="10"
     inkscape:pageopacity="0"
     inkscape:pageshadow="2"
     inkscape:window-width="1920"
     inkscape:window-height="1018"
     id="namedview13"
     showgrid="false"
     fit-margin-top="0"
     fit-margin-left="0"
     fit-margin-right="0"
     fit-margin-bottom="0"
     inkscape:zoom="10.363697"
     inkscape:cx="20.067385"
     inkscape:cy="9.8213773"
     inkscape:window-x="-8"
     inkscape:window-y="-8"
     inkscape:window-maximized="1"
     inkscape:current-layer="Layer_1" /><path
     d="M 49.738535,15.075 C 50.238535,14.575 50.138535,13.775 49.738535,13.275 L 47.338535,10.875 36.538535,0.375 C 36.038535,-0.125 35.338535,-0.125 34.838535,0.375 L 34.838535,0.375 C 34.338535,0.875 34.238535,1.675 34.838535,2.175 L 46.138535,13.275 C 46.638535,13.775 46.638535,14.575 46.138535,15.075 L 34.638535,26.575 C 34.138535,27.075 34.138535,27.875 34.638535,28.375 L 34.638535,28.375 C 35.138535,28.875 35.938535,28.775 36.338535,28.375 L 47.038535,17.775 C 47.038535,17.775 47.038535,17.775 47.138535,17.675 L 49.738535,15.075 Z"
     id="path3"
     inkscape:connector-curvature="0"
     style="fill:#3999c6" /><path
     d="M 0.33853532,15.075 C -0.16146468,14.575 -0.06146468,13.775 0.33853532,13.275 L 2.7385353,10.875 13.538535,0.375 C 14.038535,-0.125 14.738535,-0.125 15.238535,0.375 L 15.238535,0.375 C 15.738535,0.875 15.838535,1.675 15.238535,2.175 L 4.1385353,13.275 C 3.6385353,13.775 3.6385353,14.575 4.1385353,15.075 L 15.438535,26.575 C 15.938535,27.075 15.938535,27.875 15.438535,28.375 L 15.438535,28.375 C 14.938535,28.875 14.138535,28.775 13.738535,28.375 L 2.8385353,17.875 C 2.8385353,17.875 2.8385353,17.875 2.7385353,17.775 L 0.33853532,15.075 Z"
     id="path5"
     inkscape:connector-curvature="0"
     style="fill:#3999c6" /><path
     d="M 18.238535,14.175 C 18.238535,16.075 16.638535,17.475 14.938535,17.475 13.238535,17.475 11.438535,15.875 11.438535,14.175 11.438535,12.475 12.838535,10.875 14.938535,10.875 16.938535,10.875 18.238535,12.475 18.238535,14.175 Z"
     id="path7"
     inkscape:connector-curvature="0"
     style="fill:#7fba00" /><path
     d="M 28.338535,14.175 C 28.338535,16.075 26.738535,17.475 25.038535,17.475 23.338535,17.475 21.538535,15.875 21.538535,14.175 21.538535,12.475 23.138535,10.875 25.038535,10.875 26.938535,10.875 28.338535,12.475 28.338535,14.175 Z"
     id="path9"
     inkscape:connector-curvature="0"
     style="fill:#7fba00" /><circle
     cx="35.238537"
     cy="14.174999"
     r="3.3"
     id="circle11"
     style="fill:#7fba00" /></svg>

<svg xmlns="http://www.w3.org/2000/svg" height="28.714" width="50.077"><path d="M49.74 15.075c.5-.5.4-1.3 0-1.8l-2.4-2.4-10.8-10.5c-.5-.5-1.2-.5-1.7 0s-.6 1.3 0 1.8l11.3 11.1c.5.5.5 1.3 0 1.8l-11.5 11.5c-.5.5-.5 1.3 0 1.8s1.3.4 1.7 0l10.8-10.7 2.6-2.6zm-49.4 0c-.5-.5-.4-1.3 0-1.8l2.4-2.4 10.8-10.5c.5-.5 1.2-.5 1.7 0s.6 1.3 0 1.8l-11.1 11.1c-.5.5-.5 1.3 0 1.8l11.3 11.5c.5.5.5 1.3 0 1.8s-1.3.4-1.7 0l-11-10.6-2.4-2.7z" fill="#3999c6"/><g fill="#7fba00"><path d="M18.24 14.175c0 1.9-1.6 3.3-3.3 3.3s-3.5-1.6-3.5-3.3 1.4-3.3 3.5-3.3c2 0 3.3 1.6 3.3 3.3zm10.1 0c0 1.9-1.6 3.3-3.3 3.3s-3.5-1.6-3.5-3.3 1.6-3.3 3.5-3.3 3.3 1.6 3.3 3.3z"/><circle cx="35.239" cy="14.175" r="3.3"/></g></svg>
